src/parts/graphicShirt/Skull.svg

<svg>
  <g
    id="Clothing/Graphic-Shirt"
    transform="translate(0.000000, 170.000000)"
  >
    <defs>
      <path
        id="react-path-1153"
        d="M165.624032,29.2681342 C202.760022,32.1373245 232,63.1798426 232,101.051724 L232,110 L32,110 L32,101.051724 C32,62.8348009 61.7752018,31.5722494 99.3929298,29.1967444 C99.1342224,30.2735458 99,31.3767131 99,32.5 C99,44.3741221 113.998461,54 132.5,54 C151.001539,54 166,44.3741221 166,32.5 C166,31.4015235 165.871641,30.3222877 165.624025,29.2681336 Z"
      />
    </defs>
    <mask
      id="react-mask-1154"
      fill="white"
    >
      <use href="#react-path-1153" />
    </mask>
    <use
      id="Clothes"
      fill="#E6E6E6"
      fill-rule="evenodd"
      href="#react-path-1153"
    />
    <g
      id="Color/Palette/"
      mask="url(#react-mask-1154)"
      fill-rule="evenodd"
      fill="var(--avataaar-shirt-color)"
    >
      <rect
        id="Color"
        x="0"
        y="0"
        width="264"
        height="110"
      />
    </g>
    <g
      id="Clothing/Graphic/Skull"
      mask="url(#react-mask-1154)"
      fill-rule="evenodd"
      fill="#FFFFFF"
    >
      <g
        id="Fill-49"
        transform="translate(77.000000, 58.000000)"
      >
        <path d="M65.2820354,19.9288113 C64.9841617,22.7059411 59.588846,24.2025715 57.6102394,22.3766824 C56.6984983,21.5350479 56.6825881,19.8029182 56.4815012,18.6751632 C56.1014249,16.5420247 55.8256486,14.4172496 55.7306295,12.2519776 C55.6727342,10.9274596 55.3253621,9.86749314 56.7745135,9.67029008 C57.65797,9.55055964 58.5675014,10.137767 59.2896464,10.6026028 C61.736719,12.1758255 65.6201265,16.7414286 65.2820354,19.9288113 M52.8813831,14.0756657 C53.1659984,16.901216 54.2014853,21.8145656 51.9457767,24.1810024 C49.9296045,26.2960933 45.7863308,24.19905 45.1631825,21.7084809 C44.3897714,18.6188195 47.4383369,14.9274245 49.307782,12.8387447 C49.881874,12.1969544 51.151594,10.4256483 52.1442119,11.018578 C52.526056,11.2461539 52.8367463,13.6301981 52.8813831,14.0756657 M54.3212536,25.1062722 C54.9678252,23.5832306 61.2342228,28.1246236 58.2744891,30.2850536 C57.7918806,30.6376421 54.1148633,31.7513112 53.4099544,31.2274906 C51.9250051,30.1235056 53.8408548,26.2630794 54.3212536,25.1062722 M73.3250687,17.5267194 C72.8817937,2.05112066 53.065234,-2.31331777 42.4756895,6.50447654 C38.426551,9.87585667 36.113389,14.0039155 36.0073212,19.2826191 C35.9171635,23.7544627 36.6256081,27.9718792 40.0409914,31.0465744 C41.5219631,32.379896 42.5004386,33.1955596 43.2862243,35.0170469 C44.1095756,36.9234899 44.4852324,39.3524331 46.0280771,40.8495037 C46.8788292,41.6752915 48.1176128,42.3417322 49.2940816,41.8091079 C51.455655,40.8301355 50.7644465,37.8320326 51.4194152,36.1606486 C53.4559171,41.1294616 58.6302582,42.7141291 59.5694002,36.4097935 C60.6000257,38.2286397 63.2945899,40.610483 65.268335,38.6195243 C66.0806376,37.8003393 66.2030575,36.4705391 66.3409457,35.3929652 C66.5857855,33.4807998 66.1601884,32.7294032 67.6955199,31.4180909 C71.7349355,27.9683578 73.4691441,22.7464381 73.3250687,17.5267194" />
      </g>
    </g>
  </g>
</svg>

<svg>
  <g id="Clothing/Graphic-Shirt" transform="translate(0 170)">
    <defs>
      <path id="react-path-1153" d="M165.624 29.268C202.76 32.138 232 63.18 232 101.052V110H32v-8.948c0-38.217 29.775-69.48 67.393-71.855A14.107 14.107 0 0 0 99 32.5C99 44.374 113.998 54 132.5 54c18.502 0 33.5-9.626 33.5-21.5 0-1.098-.128-2.178-.376-3.232Z"/>
    </defs>
    <mask id="react-mask-1154" fill="#fff">
      <use href="#react-path-1153"/>
    </mask>
    <use id="Clothes" fill="#E6E6E6" fill-rule="evenodd" href="#react-path-1153"/>
    <g id="Color/Palette/" fill="var(--avataaar-shirt-color)" fill-rule="evenodd" mask="url(#react-mask-1154)">
      <path id="Color" d="M0 0h264v110H0z"/>
    </g>
    <g id="Clothing/Graphic/Skull" fill="#FFF" fill-rule="evenodd" mask="url(#react-mask-1154)">
      <path id="Fill-49" d="M65.282 19.929c-.298 2.777-5.693 4.274-7.672 2.448-.912-.842-.927-2.574-1.128-3.702-.38-2.133-.656-4.258-.751-6.423-.058-1.325-.406-2.385 1.044-2.582.883-.12 1.793.468 2.515.933 2.447 1.573 6.33 6.138 5.992 9.326m-12.4-5.853c.284 2.825 1.32 7.739-.936 10.105-2.016 2.115-6.16.018-6.783-2.473-.773-3.09 2.275-6.78 4.145-8.87.574-.641 1.844-2.412 2.836-1.82.382.228.693 2.612.737 3.058m1.44 11.03c.647-1.523 6.913 3.019 3.953 5.18-.482.352-4.16 1.465-4.864.941-1.485-1.103.43-4.964.911-6.12m19.004-7.58c-.443-15.476-20.26-19.84-30.85-11.023-4.048 3.372-6.362 7.5-6.468 12.779-.09 4.471.619 8.689 4.034 11.764 1.481 1.333 2.46 2.149 3.245 3.97.824 1.906 1.2 4.335 2.742 5.833.85.825 2.09 1.492 3.266.96 2.162-.98 1.47-3.978 2.125-5.65 2.037 4.97 7.211 6.554 8.15.25 1.031 1.819 3.726 4.2 5.7 2.21.812-.82.934-2.15 1.072-3.227.245-1.912-.18-2.664 1.355-3.975 4.039-3.45 5.773-8.672 5.63-13.891" transform="translate(77 58)"/>
    </g>
  </g>
</svg>
